src/lib/packages/icons/src/assets/line/tv-retro.svg

<svg width="24" height="24" viewBox="0 0 24 24" fill="none" xmlns="http://www.w3.org/2000/svg">
<path d="M18 6.25002H13.811L16.531 3.53005C16.824 3.23705 16.824 2.76202 16.531 2.46902C16.238 2.17602 15.763 2.17602 15.47 2.46902L12 5.93899L8.53003 2.46902C8.23703 2.17602 7.76199 2.17602 7.46899 2.46902C7.17599 2.76202 7.17599 3.23705 7.46899 3.53005L10.189 6.25002H6C3.582 6.25002 2.25 7.58202 2.25 10V18C2.25 20.418 3.582 21.75 6 21.75H18C20.418 21.75 21.75 20.418 21.75 18V10C21.75 7.58202 20.418 6.25002 18 6.25002ZM20.25 18C20.25 19.577 19.577 20.25 18 20.25H6C4.423 20.25 3.75 19.577 3.75 18V10C3.75 8.42302 4.423 7.75002 6 7.75002H18C19.577 7.75002 20.25 8.42302 20.25 10V18ZM13.5 9.25002H7.5C6.091 9.25002 5.25 10.091 5.25 11.5V16.5C5.25 17.909 6.091 18.75 7.5 18.75H13.5C14.909 18.75 15.75 17.909 15.75 16.5V11.5C15.75 10.091 14.909 9.25002 13.5 9.25002ZM14.25 16.5C14.25 17.089 14.089 17.25 13.5 17.25H7.5C6.911 17.25 6.75 17.089 6.75 16.5V11.5C6.75 10.911 6.911 10.75 7.5 10.75H13.5C14.089 10.75 14.25 10.911 14.25 11.5V16.5ZM19 11C19 11.552 18.552 12 18 12C17.448 12 17 11.552 17 11C17 10.448 17.448 10 18 10C18.552 10 19 10.448 19 11ZM19 14C19 14.552 18.552 15 18 15C17.448 15 17 14.552 17 14C17 13.448 17.448 13 18 13C18.552 13 19 13.448 19 14Z" fill="currentColor"/>
</svg>

<svg xmlns="http://www.w3.org/2000/svg" width="24" height="24" fill="none"><path fill="currentColor" d="M18 6.25h-4.189l2.72-2.72a.75.75 0 0 0-1.061-1.061L12 5.939l-3.47-3.47A.75.75 0 0 0 7.469 3.53l2.72 2.72H6c-2.418 0-3.75 1.332-3.75 3.75v8c0 2.418 1.332 3.75 3.75 3.75h12c2.418 0 3.75-1.332 3.75-3.75v-8c0-2.418-1.332-3.75-3.75-3.75ZM20.25 18c0 1.577-.673 2.25-2.25 2.25H6c-1.577 0-2.25-.673-2.25-2.25v-8c0-1.577.673-2.25 2.25-2.25h12c1.577 0 2.25.673 2.25 2.25v8ZM13.5 9.25h-6c-1.409 0-2.25.841-2.25 2.25v5c0 1.409.841 2.25 2.25 2.25h6c1.409 0 2.25-.841 2.25-2.25v-5c0-1.409-.841-2.25-2.25-2.25Zm.75 7.25c0 .589-.161.75-.75.75h-6c-.589 0-.75-.161-.75-.75v-5c0-.589.161-.75.75-.75h6c.589 0 .75.161.75.75v5ZM19 11a1 1 0 1 1-2 0 1 1 0 0 1 2 0Zm0 3a1 1 0 1 1-2 0 1 1 0 0 1 2 0Z"/></svg>
